X: 583
T: Jennie Pippin
C: anon.
O: Ireland
B: Francis O'Neill: "The Dance Music of Ireland" (1907) no. 583
R: Reel
Z: Transcribed by Frank Nordberg - http://www.musicaviva.com
F: http://www.musicaviva.com/abc/tunes/ireland/oneill-1001/oneill-1001-058
3.abc
M: C|
L: 1/8
K: D
B|BADA dAFA|BADA defd|BADA dAFA|[1dcdf e2d:|[2dbaf e2d||d|dfaf bgaf|
dfaf (3gag fe|dfaf bgaf|dBAf e2dd|dfaf bgaf|bgaf g2fg|agfe dBAB|dbaf e2d|
]
W:
W:
W: From Musica Viva - http://www.musicaviva.com
W: the Internet center for free sheet music downloads.


